X:1
T:Title
%%score 1 2 3 4
L:1/8
M:4/4
K:G
V:1 treble nm="Church Organ, Church Organ"
V:2 treble nm="French Horn, French Horn"
V:3 bass nm="Trombone, Trombone"
V:4 bass nm="Tuba, Tuba"
V:1
 c2 E2 B2 E2 | A2 E2 E4 | GAGA G2 c2 | B8 | d2 B2 c2 A2 | B2 =F2 F4 | ABAB A2 B2 | E8 | %8
w: By~F.~W.~Peace * * *||||||||
 DEFG A2 D2 | B2 G2 D4 | DEFG A2 D2 | B2 d2 d4 | GABc d2 G2 | c2 e2 e4 | dcBA E2 F2 | G8 | %16
w: ||||||||
 c2 E2 B2 E2 | A2 E2 E4 | GAGA G2 c2 | B8 | G2 ^G2 A2 _B2 | B2 c2 d4 | =FAGA G2 d2 | c8 |] %24
w: ||||||||
V:2
 [CE]2 [CE]2 [CE]2 [CE]2 | [CE]2 [CE]2 [CE]4 | E2 E2 E2 E2 | =F2 F2 F2 F2 | =F2 F2 E2 E2 | %5
 =F2 D2 D4 | =F2 F2 F2 [DF]2 | C8 | C2 C2 C2 C2 | [B,D]2 [B,D]2 B,2 D2 | C2 C2 C2 C2 | %11
 [B,D]2 [DG]2 [DG]2 [DG]2 | =F2 F2 F2 F2 | E2 [EG]2 [EG]2 [EG]2 | [DG]2 D2 C2 C2 | [B,D]8 | %16
 [CE]2 [CE]2 [CE]2 [CE]2 | [CE]2 [CE]2 [CE]4 | E2 E2 E2 E2 | [B,=F]2 [B,F]2 [B,F]2 [B,F]2 | z8 | %21
 z8 | =F2 F2 F2 F2 | E2 =F2 E4 |] %24
V:3
 G,2 G,2 G,2 G,2 | G,2 G,2 G,2 G,2 | G,2 G,2 G,2 G,2 | G,2 G,2 G,2 G,2 | B,2[K:treble] D2 C2 C2 | %5
w: Waft~ the~ ti dings~|far~ and~ near,~ *|Mer mer Christ mas~|time;~ * * *|Ring~ it~ out~ with~|
 D2 B,2 B,2 B,2 | CDCD C2 z2 | G,4 z4 | F,G,A,G, F,2 F,2 | G,2 G,2 G,2 G,2 | F,G,A,G, F,2 F,2 | %11
w: right~ good~ cheer,~ *|Mer ry,~ mer ry~ Christ|time.~|Mer ri ly~ we~ wel come~|Christ mas~ day,~ *|Cher ri ly~ we~ sing~ our~|
 G,2 B,2 B,2 B,2 | B,[K:treble]CDC B,2 B,2 | C2 C2[K:bass] _B,2 B,2 | B,A,G,F, G,2 A,2 | %15
w: Christ mas~ lay,~ *|List~ the~ mer ry~ strains~ from~|far~ a way~ *|Mer ry,~ mer ry~ Christ mas~|
 G,2 z2 z4 | G,2 G,2 G,2 G,2 | G,2 G,2 G,2 G,2 | G,2 G,2 G,2 G,2 | G,2 G,2 G,2 G,2 | %20
w: time.~|Waft~ the~ tid ings~|far~ and~ near,~ *|Mer mer Christ mas~|time.~ * * *|
 G,,G,^G,,^G, A,,A,_B,,_B, | B,,B,C,C D,DD,[K:treble]D | B,CB,C[K:bass] B,2 B,2 | C2 B,2 A,4 |] %24
w: Right~ * it~ * out~ * with~ *|right~ * good~ * cheer,~ * * *|Mer ry,~ mer ry~ Christ mas~|time.~ * *|
V:4
 C,2 G,,2 C,2 G,,2 | C,2 G,,2 C,2 G,,2 | C,2 G,,2 C,2 G,,2 | D,2 G,,2 D,2 G,,2 | G,2 G,2 G,2 G,2 | %5
 G,2 G,2 G,2 D,2 | G,2 G,2 G,2 G,2 | C,2 B,,2 A,,2 G,,2 | D,2 D,2 D,2 D,2 | G,,2 G,,2 G,,2 B,,2 | %10
 D,2 D,2 D,2 D,2 | G,,2 G,2 G,2 G,2 | G,2 G,2 G,2 G,2 | C,2 C,2 ^C,2 C,2 | D,2 D,2 D,2 D,2 | %15
 G,,A,,B,,C, D,E,=F,G, | C,2 G,,2 C,2 G,,2 | C,2 G,,2 C,2 G,,2 | C,2 G,,2 C,2 G,,2 | %19
 D,2 G,,2 D,2 G,,2 | z8 | z8 | G,2 G,2 G,2 G,2 | C,8 |] %24

